X:1
T: The Deil amang the Tailors
C:
R:Reel
Q: 232
K:A
M:4/4
L:1/8
|:e|a2 eg a2 eg|a2 ea fe dc|df Bf df Bf|df ba ga bg|
a2 eg a2 eg|a2 ea fe dc|de fd ec BA|E2 G2 A2:|
|:e2|ce Ae ce Ae|ce ag fe dc|df Bf df Bf|df ba gf ed|
ce Ae ce Ae|ce ag fe dc|de fd ec BA|E2 G2 A2:|
